X: 109
T: The Morning Air
N:"Gaily"
B:O'Neill's 109
Z:Transcribed by henrik.norbeck@mailbox.swipnet.se
M:6/8
L:1/8
K:Gm
D|G2 G (G^FD)|(GA).G (G^F).D|(=FGF) B2 D|F3 (D2 ^F)|
(G2 A) (B2 A)|{A}(c2 B) (AG^F)|G2 (A/B/) (AG).^F|G3 G2||
z|d2 d (dc).B|d3 f2 z|(FGF) B2 D|F3 (D2 ^F)|
(G2 A) (B2 A)|{A}(c2 B) (AG^F)|(GA).B (AG).^F|G3 G2||


